T: Lea Rig, The
M: 4/4
L: 1/8
K: Gmaj
|: B |GEDE G2 GA | B/A/B AG AEEA | GEDE G2 Gg | e2 dB dGG :|
g |e2 dB degB | A/A/A AG AEEA | GEDE G2 Gg | e2 dB dGGg |
e2 dB degB | A/A/A AG AEEA | GEDE GABd | egdg BGG |]
